local/share/icons/dracula-icons-main/scalable/mimetypes/application-x-kexi-connectiondata.svg

<?xml version="1.0" encoding="UTF-8"?>
<svg xmlns="http://www.w3.org/2000/svg" xmlns:xlink="http://www.w3.org/1999/xlink" width="64" height="64" viewBox="0 0 64 64">
<defs>
<filter id="filter-remove-color" x="0%" y="0%" width="100%" height="100%">
<feColorMatrix color-interpolation-filters="sRGB" values="0 0 0 0 1 0 0 0 0 1 0 0 0 0 1 0 0 0 1 0" />
</filter>
<mask id="mask-0">
<g filter="url(#filter-remove-color)">
<rect x="-6.4" y="-6.4" width="76.8" height="76.8" fill="rgb(0%, 0%, 0%)" fill-opacity="0.15"/>
</g>
</mask>
<linearGradient id="linear-pattern-0" gradientUnits="userSpaceOnUse" x1="49.570999" y1="52.714001" x2="51.714001" y2="54.856998" gradientTransform="matrix(2.3333, 0, 0, 2.3333, -68.667, -72.000999)">
<stop offset="0" stop-color="rgb(0%, 0%, 0%)" stop-opacity="1"/>
<stop offset="1" stop-color="rgb(0%, 0%, 0%)" stop-opacity="0"/>
</linearGradient>
<clipPath id="clip-0">
<rect x="0" y="0" width="64" height="64"/>
</clipPath>
<g id="source-5780" clip-path="url(#clip-0)">
<path fill-rule="evenodd" fill="url(#linear-pattern-0)" d="M 56 46 L 42 60 L 51 60 C 53.769531 60 56 57.769531 56 55 Z M 56 46 "/>
</g>
<mask id="mask-1">
<g filter="url(#filter-remove-color)">
<rect x="-6.4" y="-6.4" width="76.8" height="76.8" fill="rgb(0%, 0%, 0%)" fill-opacity="0.75"/>
</g>
</mask>
<clipPath id="clip-1">
<rect x="0" y="0" width="64" height="64"/>
</clipPath>
<g id="source-5784" clip-path="url(#clip-1)">
<path fill-rule="nonzero" fill="rgb(100%, 100%, 100%)" fill-opacity="1" d="M 32 21 C 25.925781 21 21 22.34375 21 24 L 21 34 C 21.003906 34.429688 21.34375 34.851562 22 35.242188 C 22.003906 35.246094 22.007812 35.246094 22.011719 35.25 C 22.15625 35.335938 22.316406 35.417969 22.488281 35.5 C 22.5 35.503906 22.507812 35.507812 22.519531 35.515625 C 22.691406 35.59375 22.875 35.671875 23.070312 35.746094 C 23.089844 35.753906 23.113281 35.761719 23.132812 35.769531 C 23.320312 35.839844 23.515625 35.90625 23.722656 35.972656 C 23.769531 35.984375 23.8125 36 23.855469 36.011719 C 24.066406 36.074219 24.28125 36.132812 24.507812 36.191406 C 24.539062 36.199219 24.574219 36.207031 24.605469 36.21875 C 24.855469 36.277344 25.113281 36.335938 25.378906 36.394531 C 25.398438 36.394531 25.414062 36.398438 25.433594 36.402344 C 25.695312 36.457031 25.96875 36.507812 26.246094 36.554688 C 26.292969 36.5625 26.339844 36.570312 26.386719 36.578125 C 26.640625 36.617188 26.902344 36.65625 27.164062 36.691406 C 27.238281 36.703125 27.3125 36.710938 27.386719 36.722656 C 27.628906 36.75 27.875 36.777344 28.121094 36.804688 C 28.246094 36.816406 28.367188 36.828125 28.488281 36.839844 C 28.667969 36.855469 28.847656 36.871094 29.027344 36.886719 C 29.226562 36.898438 29.421875 36.914062 29.621094 36.925781 C 29.785156 36.933594 29.945312 36.945312 30.109375 36.953125 C 30.300781 36.960938 30.496094 36.96875 30.6875 36.976562 C 30.839844 36.980469 30.996094 36.984375 31.148438 36.988281 C 31.433594 36.996094 31.714844 37 32 37 C 32.320312 37 32.640625 36.996094 32.957031 36.988281 C 33.097656 36.984375 33.234375 36.976562 33.371094 36.972656 C 33.613281 36.964844 33.851562 36.957031 34.089844 36.945312 C 34.207031 36.9375 34.320312 36.929688 34.433594 36.921875 C 34.671875 36.90625 34.910156 36.890625 35.140625 36.875 C 35.25 36.863281 35.355469 36.855469 35.460938 36.84375 C 35.71875 36.820312 35.976562 36.796875 36.226562 36.769531 C 36.289062 36.761719 36.347656 36.753906 36.40625 36.746094 C 36.683594 36.714844 36.953125 36.675781 37.214844 36.640625 C 37.289062 36.628906 37.359375 36.617188 37.429688 36.605469 C 37.660156 36.570312 37.886719 36.53125 38.105469 36.492188 C 38.210938 36.472656 38.316406 36.453125 38.417969 36.429688 C 38.625 36.390625 38.824219 36.351562 39.015625 36.304688 C 39.082031 36.292969 39.144531 36.277344 39.210938 36.261719 C 39.441406 36.207031 39.660156 36.148438 39.871094 36.09375 C 39.878906 36.089844 39.882812 36.089844 39.886719 36.089844 C 39.894531 36.085938 39.902344 36.082031 39.910156 36.082031 C 40.15625 36.011719 40.390625 35.9375 40.609375 35.863281 C 40.839844 35.78125 41.050781 35.703125 41.246094 35.617188 C 41.25 35.617188 41.25 35.617188 41.25 35.617188 C 41.253906 35.617188 41.253906 35.617188 41.257812 35.613281 C 41.449219 35.53125 41.628906 35.449219 41.792969 35.359375 C 41.792969 35.359375 41.796875 35.359375 41.796875 35.355469 C 41.867188 35.320312 41.933594 35.28125 42 35.242188 C 42.65625 34.851562 42.996094 34.429688 43 34 L 43 24 C 43 22.34375 38.074219 21 32 21 M 32 37 L 31 37 L 31 40 L 32 40 L 32 41 L 24 41 L 24 40 L 21 40 L 21 43 L 24 43 L 24 42 L 40 42 L 40 43 L 43 43 L 43 40 L 40 40 L 40 41 L 33 41 L 33 40 L 34 40 L 34 37 Z M 32 22 C 37.523438 22 42 22.894531 42 24 C 42 25.105469 37.523438 26 32 26 C 26.476562 26 22 25.105469 22 24 C 22 22.894531 26.476562 22 32 22 M 22 25.242188 C 23.785156 26.3125 27.691406 26.996094 32 27 C 36.308594 27 40.214844 26.3125 42 25.242188 L 42 29 C 42 30.105469 37.523438 31 32 31 C 26.476562 31 22 30.105469 22 29 Z M 22 30.242188 C 23.785156 31.3125 27.691406 31.996094 32 32 C 36.308594 32 40.214844 31.3125 42 30.242188 L 42 34 C 42 35.105469 37.523438 36 32 36 C 26.476562 36 22 35.105469 22 34 Z M 32 38 L 33 38 L 33 39 L 32 39 Z M 22 41 L 23 41 L 23 42 L 22 42 Z M 41 41 L 42 41 L 42 42 L 41 42 Z M 41 41 "/>
</g>
</defs>
<path fill-rule="nonzero" fill="rgb(52.156863%, 25.882353%, 76.078431%)" fill-opacity="1" d="M 13 4 L 51 4 C 53.761719 4 56 6.238281 56 9 L 56 55 C 56 57.761719 53.761719 60 51 60 L 13 60 C 10.238281 60 8 57.761719 8 55 L 8 9 C 8 6.238281 10.238281 4 13 4 Z M 13 4 "/>
<g mask="url(#mask-0)">
<use xlink:href="#source-5780"/>
</g>
<g mask="url(#mask-1)">
<use xlink:href="#source-5784"/>
</g>
</svg>

<svg width="64" height="64" version="1.1" viewBox="0 0 64 64" xmlns="http://www.w3.org/2000/svg">
 <defs>
  <linearGradient id="a" x1="49.571" x2="51.714" y1="52.714" y2="54.857" gradientTransform="matrix(2.3333,0,0,2.3333,-68.667,-72.001)" gradientUnits="userSpaceOnUse">
   <stop offset="0"/>
   <stop stop-opacity="0" offset="1"/>
  </linearGradient>
 </defs>
 <g transform="scale(1)">
  <rect x="8" y="4" width="48" height="56" ry="5" fill="#8542c2" style="paint-order:stroke fill markers"/>
  <path d="m56 46-14 14h9c2.77 0 5-2.23 5-5z" fill="url(#a)" fill-rule="evenodd" opacity=".15" stroke-width="8.8191" style="paint-order:stroke fill markers"/>
 </g>
 <path d="m32 21c-6.075 0-11 1.343-11 3v10a11 3 0 0 0 1 1.2422 11 3 0 0 0 0.0117 0.0059 11 3 0 0 0 0.47656 0.25195 11 3 0 0 0 0.0312 0.01367 11 3 0 0 0 0.55079 0.23242 11 3 0 0 0 0.0645 0.02344 11 3 0 0 0 0.58984 0.20117 11 3 0 0 0 0.13281 0.04102 11 3 0 0 0 0.65039 0.17969 11 3 0 0 0 0.0996 0.02539 11 3 0 0 0 0.77344 0.17578 11 3 0 0 0 0.0527 0.0098 11 3 0 0 0 0.81445 0.15039 11 3 0 0 0 0.13867 0.02344 11 3 0 0 0 0.7793 0.11523 11 3 0 0 0 0.2207 0.0293 11 3 0 0 0 0.73633 0.08203 11 3 0 0 0 0.36719 0.03711 11 3 0 0 0 0.53906 0.04492 11 3 0 0 0 0.5918 0.04102 11 3 0 0 0 0.49023 0.02539 11 3 0 0 0 0.57617 0.02344 11 3 0 0 0 0.4629 0.01367 11 3 0 0 0 0.84961 0.01163 11 3 0 0 0 0.95899-0.01367 11 3 0 0 0 0.41406-0.01367 11 3 0 0 0 0.7168-0.0293 11 3 0 0 0 0.3457-0.02148 11 3 0 0 0 0.70703-0.04883 11 3 0 0 0 0.31836-0.0293 11 3 0 0 0 0.76758-0.07617 11 3 0 0 0 0.17969-0.02148 11 3 0 0 0 0.80859-0.10742 11 3 0 0 0 0.21289-0.03516 11 3 0 0 0 0.67773-0.11133 11 3 0 0 0 0.3125-0.06055 11 3 0 0 0 0.59571-0.125 11 3 0 0 0 0.19531-0.04687 11 3 0 0 0 0.66211-0.16797 11 3 0 0 0 0.0137-0.0039 11 3 0 0 0 0.0234-0.0078 11 3 0 0 0 0.70117-0.21875 11 3 0 0 0 0.63672-0.24414 11 3 0 0 0 2e-3 0 11 3 0 0 0 6e-3 -2e-3 11 3 0 0 0 0.53516-0.25391 11 3 0 0 0 6e-3 -0.0039 11 3 0 0 0 0.20299-0.11522 11 3 0 0 0 1-1.2422v-10c0-1.657-4.925-3-11-3m0 16h-1v3h1v1h-8v-1h-3v3h3v-1h16v1h3v-3h-3v1h-7v-1h1v-3zm0-15c5.523 0 10 0.895 10 2s-4.477 2-10 2-10-0.895-10-2 4.477-2 10-2m-10 3.242c1.784 1.069 5.692 1.756 10 1.758 4.308-1e-3 8.216-0.688 10-1.758v3.758c0 1.105-4.477 2-10 2s-10-0.895-10-2zm0 5c1.784 1.069 5.692 1.756 10 1.758 4.308-1e-3 8.216-0.688 10-1.758v3.758a10 2 0 0 1-10 2 10 2 0 0 1-10-2v-2zm10 7.758h1v1h-1zm-10 3h1v1h-1zm19 0h1v1h-1z" fill="#fff" opacity=".75"/>
</svg>
